assets/Pie/Flat/pie_flat.svg

<svg width="32" height="32" viewBox="0 0 32 32" fill="none" xmlns="http://www.w3.org/2000/svg">
<path d="M15.4147 29.3482C20.7541 29.3482 25.0826 24.8084 25.0826 19.2082C25.0826 13.6081 20.7541 9.06824 15.4147 9.06824C10.0752 9.06824 5.74673 13.6081 5.74673 19.2082C5.74673 24.8084 10.0752 29.3482 15.4147 29.3482Z" fill="#636363"/>
<path d="M16.7962 2.25827C18.4498 1.59827 20.3245 2.23827 21.2955 3.77827C21.8051 4.58827 22.5742 5.16827 23.4683 5.41827C25.1796 5.89827 26.3333 7.55827 26.2468 9.39827C26.1987 10.3583 26.4967 11.3083 27.0736 12.0583C28.1888 13.4983 28.1888 15.5383 27.0736 16.9783C26.4967 17.7283 26.1987 18.6683 26.2468 19.6383C26.3333 21.4783 25.1796 23.1383 23.4683 23.6183C22.5742 23.8683 21.8051 24.4583 21.2955 25.2583C20.3245 26.7983 18.4498 27.4383 16.7962 26.7783C15.9309 26.4383 14.9791 26.4383 14.1138 26.7783C12.4602 27.4383 10.5855 26.7983 9.61447 25.2583C9.10492 24.4483 8.3358 23.8683 7.44169 23.6183C5.73039 23.1383 4.5767 21.4783 4.66323 19.6383C4.7113 18.6783 4.41327 17.7283 3.83642 16.9783C2.72119 15.5383 2.72119 13.4983 3.83642 12.0583C4.41327 11.2983 4.7113 10.3583 4.66323 9.39827C4.5767 7.55827 5.73039 5.89827 7.44169 5.41827C8.3358 5.16827 9.10492 4.57827 9.61447 3.77827C10.5855 2.23827 12.4602 1.59827 14.1138 2.25827C14.9791 2.59827 15.9309 2.59827 16.7962 2.25827Z" fill="#E19747"/>
<path d="M15.41 25.3483C21.209 25.3483 25.91 20.4234 25.91 14.3483C25.91 8.27313 21.209 3.34827 15.41 3.34827C9.61098 3.34827 4.90997 8.27313 4.90997 14.3483C4.90997 20.4234 9.61098 25.3483 15.41 25.3483Z" fill="#F3C07B"/>
<path d="M10.8704 8.62152C10.6733 8.42804 10.3568 8.43092 10.1633 8.62794C9.96979 8.82497 9.97266 9.14154 10.1697 9.33502L12.9497 12.065C13.1467 12.2585 13.4633 12.2556 13.6568 12.0586C13.8502 11.8616 13.8474 11.545 13.6504 11.3515L10.8704 8.62152ZM20.6503 9.33502C20.8474 9.14154 20.8502 8.82497 20.6568 8.62794C20.4633 8.43092 20.1467 8.42804 19.9497 8.62152L17.1697 11.3515C16.9727 11.545 16.9698 11.8616 17.1633 12.0586C17.3568 12.2556 17.6733 12.2585 17.8704 12.065L20.6503 9.33502ZM17.1633 14.6279C17.3568 14.4309 17.6733 14.428 17.8704 14.6215L20.6503 17.3515C20.8474 17.545 20.8502 17.8616 20.6568 18.0586C20.4633 18.2556 20.1467 18.2585 19.9497 18.065L17.1697 15.335C16.9727 15.1415 16.9698 14.825 17.1633 14.6279ZM13.6504 15.335C13.8474 15.1415 13.8502 14.825 13.6568 14.6279C13.4633 14.4309 13.1467 14.428 12.9497 14.6215L10.1697 17.3515C9.97266 17.545 9.96979 17.8616 10.1633 18.0586C10.3568 18.2556 10.6733 18.2585 10.8704 18.065L13.6504 15.335Z" fill="#D3883E"/>
</svg>

<svg xmlns="http://www.w3.org/2000/svg" width="32" height="32" fill="none"><path fill="#636363" d="M15.415 29.348c5.34 0 9.668-4.54 9.668-10.14 0-5.6-4.329-10.14-9.668-10.14-5.34 0-9.668 4.54-9.668 10.14 0 5.6 4.328 10.14 9.668 10.14Z"/><path fill="#E19747" d="M16.796 2.258c1.654-.66 3.529-.02 4.5 1.52.51.81 1.278 1.39 2.172 1.64 1.712.48 2.865 2.14 2.779 3.98-.048.96.25 1.91.827 2.66a4.036 4.036 0 0 1 0 4.92 4.03 4.03 0 0 0-.827 2.66c.086 1.84-1.067 3.5-2.779 3.98-.894.25-1.663.84-2.172 1.64-.971 1.54-2.846 2.18-4.5 1.52a3.655 3.655 0 0 0-2.682 0c-1.654.66-3.529.02-4.5-1.52a3.767 3.767 0 0 0-2.172-1.64c-1.712-.48-2.865-2.14-2.779-3.98.048-.96-.25-1.91-.827-2.66a4.036 4.036 0 0 1 0-4.92c.577-.76.875-1.7.827-2.66-.086-1.84 1.067-3.5 2.779-3.98a3.809 3.809 0 0 0 2.172-1.64c.971-1.54 2.846-2.18 4.5-1.52.865.34 1.817.34 2.682 0Z"/><path fill="#F3C07B" d="M15.41 25.348c5.799 0 10.5-4.925 10.5-11s-4.701-11-10.5-11-10.5 4.925-10.5 11 4.701 11 10.5 11Z"/><path fill="#D3883E" d="M10.87 8.622a.5.5 0 0 0-.7.713l2.78 2.73a.5.5 0 0 0 .7-.713l-2.78-2.73Zm9.78.713a.5.5 0 1 0-.7-.713l-2.78 2.73a.5.5 0 0 0 .7.713l2.78-2.73Zm-3.487 5.293a.5.5 0 0 1 .707-.007l2.78 2.73a.5.5 0 1 1-.7.714l-2.78-2.73a.5.5 0 0 1-.007-.707Zm-3.513.707a.5.5 0 0 0-.7-.714l-2.78 2.73a.5.5 0 1 0 .7.714l2.78-2.73Z"/></svg>
